X: 158
% Copyright 1941 by Embassy Music Corporation, USA, Dorsey Brothers Music Limited, 8-9 Frith Street, London W1
T: Oh! Look at me now
M: 4/4
L: 1/8
C: Joe Bushkin & Joen DeVries
Q: 1/4=120
%%staves (chords melody)
K: Eb
%%text (medium)
%%vskip 20
P: A
V: chords
x || "Ebmaj7"x4 "(Cbdim7)""Bb7"x4 | "Bbm7"x4 "Eb7"x4 | "Abmaj7"x4 x4 | "Abm6"x4 "Db7"x4 |
"Ebmaj7"x4 "C7"x4 | "F7"x4 x4 | "B7(b5)"x4 x4 | "Bb7"x4 x4 ||
V: melody
B || edBG- G3G | BcBc- cB3 | cBGE-E3E | FEFG- GABG- |
